symbols/web/sd/materialsymbolsoutlined/sd_wght500grad200fill1_48px.svg

<svg xmlns="http://www.w3.org/2000/svg" height="48" width="48"><path d="M13.7 30.2h6.4q.65 0 1.325-.475.675-.475.675-1.175v-3.7q0-.7-.65-1.175-.65-.475-1.35-.475h-5.55v-2.9h5.05v.9h2.5v-1.7q0-.7-.65-1.2t-1.35-.5h-6.4q-.7 0-1.2.5t-.5 1.2v3.7q0 .7.5 1.175.5.475 1.2.475h5.9v2.85h-5.05v-.85H12v1.7q0 .7.5 1.175.5.475 1.2.475Zm12.2 0h7.2q1.2 0 2.05-.875.85-.875.85-1.975v-6.7q0-1.1-.85-1.975T33.1 17.8h-7.2Zm2.5-2.5h5.1v-7.4h-5.1Zm-21.3 13q-1.55 0-2.7-1.15-1.15-1.15-1.15-2.7v-25.7q0-1.55 1.15-2.725T7.1 7.25h33.8q1.55 0 2.7 1.175 1.15 1.175 1.15 2.725v25.7q0 1.55-1.15 2.7-1.15 1.15-2.7 1.15Z"/></svg>

<svg xmlns="http://www.w3.org/2000/svg" height="48" width="48"><path d="M13.7 30.2H20.1Q20.75 30.2 21.425 29.725Q22.1 29.25 22.1 28.55V24.85Q22.1 24.15 21.45 23.675Q20.8 23.2 20.1 23.2H14.55V20.3H19.6V21.2H22.1V19.5Q22.1 18.8 21.45 18.3Q20.8 17.8 20.1 17.8H13.7Q13 17.8 12.5 18.3Q12 18.8 12 19.5V23.2Q12 23.9 12.5 24.375Q13 24.85 13.7 24.85H19.6V27.7H14.55V26.85H12V28.55Q12 29.25 12.5 29.725Q13 30.2 13.7 30.2ZM25.9 30.2H33.1Q34.3 30.2 35.15 29.325Q36 28.45 36 27.35V20.65Q36 19.55 35.15 18.675Q34.3 17.8 33.1 17.8H25.9ZM28.4 27.7H33.5Q33.5 27.7 33.5 27.7Q33.5 27.7 33.5 27.7V20.3Q33.5 20.3 33.5 20.3Q33.5 20.3 33.5 20.3H28.4ZM7.1 40.7Q5.55 40.7 4.4 39.55Q3.25 38.4 3.25 36.85V11.15Q3.25 9.6 4.4 8.425Q5.55 7.25 7.1 7.25H40.9Q42.45 7.25 43.6 8.425Q44.75 9.6 44.75 11.15V36.85Q44.75 38.4 43.6 39.55Q42.45 40.7 40.9 40.7Z"/></svg>
